Numix-Light/16/status/indicator-keyboard-Ph-7.svg

<?xml version="1.0" encoding="UTF-8" standalone="no"?>
<svg
   xmlns:dc="http://purl.org/dc/elements/1.1/"
   xmlns:cc="http://creativecommons.org/ns#"
   xmlns:rdf="http://www.w3.org/1999/02/22-rdf-syntax-ns#"
   xmlns:svg="http://www.w3.org/2000/svg"
   xmlns="http://www.w3.org/2000/svg"
   xmlns:sodipodi="http://sodipodi.sourceforge.net/DTD/sodipodi-0.dtd"
   xmlns:inkscape="http://www.inkscape.org/namespaces/inkscape"
   viewBox="0 0 16 16"
   id="svg2"
   version="1.1"
   inkscape:version="0.91 r13725"
   sodipodi:docname="indicator-keyboard-Ph-7.svg">
  <metadata
     id="metadata14">
    <rdf:RDF>
      <cc:Work
         rdf:about="">
        <dc:format>image/svg+xml</dc:format>
        <dc:type
           rdf:resource="http://purl.org/dc/dcmitype/StillImage" />
      </cc:Work>
    </rdf:RDF>
  </metadata>
  <defs
     id="defs12" />
  <sodipodi:namedview
     pagecolor="#ffffff"
     bordercolor="#666666"
     borderopacity="1"
     objecttolerance="10"
     gridtolerance="10"
     guidetolerance="10"
     inkscape:pageopacity="0"
     inkscape:pageshadow="2"
     inkscape:window-width="640"
     inkscape:window-height="480"
     id="namedview10"
     showgrid="false"
     inkscape:zoom="14.75"
     inkscape:cx="8"
     inkscape:cy="8"
     inkscape:window-x="65"
     inkscape:window-y="24"
     inkscape:window-maximized="0"
     inkscape:current-layer="svg2" />
  <path
     style="fill:#353535;fill-opacity:1"
     d="M 1.5996094 0 C 0.71320937 2.9605947e-16 0 0.71320937 0 1.5996094 L 0 14.400391 C 2.9605947e-16 15.286791 0.71320937 16 1.5996094 16 L 14.400391 16 C 15.286791 16 16 15.286791 16 14.400391 L 16 1.5996094 C 16 0.71320937 15.286791 0 14.400391 0 L 1.5996094 0 z M 7.6269531 4.1113281 L 7.6269531 6.578125 C 7.8189531 6.506125 8.0129375 6.4520156 8.2109375 6.4160156 C 8.4089375 6.3740156 8.6066875 6.3535156 8.8046875 6.3535156 C 9.1646875 6.3535156 9.4650781 6.4038594 9.7050781 6.5058594 C 9.9450783 6.6078594 10.13725 6.7552656 10.28125 6.9472656 C 10.42525 7.1332656 10.524125 7.3570938 10.578125 7.6210938 C 10.638125 7.8850937 10.667969 8.1761406 10.667969 8.4941406 L 10.667969 11.095703 L 10.083984 11.095703 L 10.083984 8.6835938 C 10.083984 8.3535938 10.059719 8.0756562 10.011719 7.8476562 C 9.9697187 7.6196562 9.8951096 7.4330625 9.7871094 7.2890625 C 9.6851094 7.1450625 9.5470469 7.0424219 9.3730469 6.9824219 C 9.1990469 6.9164219 8.9788437 6.8847656 8.7148438 6.8847656 C 8.6128437 6.8847656 8.5028125 6.8921562 8.3828125 6.9101562 C 8.2688125 6.9281563 8.1605938 6.9506094 8.0585938 6.9746094 C 7.9565938 6.9926094 7.8632969 7.0131094 7.7792969 7.0371094 C 7.7012969 7.0611094 7.6509531 7.0797969 7.6269531 7.0917969 L 7.6269531 11.095703 L 7.0410156 11.095703 L 7.0410156 4.2207031 L 7.6269531 4.1113281 z M 3.3261719 4.8046875 C 4.2081719 4.8046875 4.864875 4.9725937 5.296875 5.3085938 C 5.728875 5.6445937 5.9453125 6.1222344 5.9453125 6.7402344 C 5.9453125 7.0942344 5.8818594 7.3964375 5.7558594 7.6484375 C 5.6298594 7.8944375 5.4507969 8.0959531 5.2167969 8.2519531 C 4.9827969 8.4019531 4.6935625 8.5139375 4.3515625 8.5859375 C 4.0155625 8.6519375 3.6349844 8.6835937 3.2089844 8.6835938 L 2.3632812 8.6835938 L 2.3632812 11.095703 L 1.7519531 11.095703 L 1.7519531 4.9765625 C 1.9679531 4.9165625 2.2198125 4.8736094 2.5078125 4.8496094 C 2.8018125 4.8196094 3.0741719 4.8046875 3.3261719 4.8046875 z M 3.3535156 5.3359375 C 3.1255156 5.3359375 2.9295781 5.3452813 2.7675781 5.3632812 C 2.6115781 5.3752812 2.4772812 5.3864375 2.3632812 5.3984375 L 2.3632812 8.1523438 L 3.1367188 8.1523438 C 3.4667187 8.1523438 3.7633438 8.1356094 4.0273438 8.0996094 C 4.2973437 8.0576094 4.5268906 7.9848125 4.7128906 7.8828125 C 4.9048906 7.7748125 5.0503438 7.6274062 5.1523438 7.4414062 C 5.2543437 7.2554063 5.3066406 7.0184687 5.3066406 6.7304688 C 5.3066406 6.4544688 5.2487656 6.226875 5.1347656 6.046875 C 5.0267656 5.866875 4.8793594 5.7250469 4.6933594 5.6230469 C 4.5133594 5.5150469 4.3062656 5.4404375 4.0722656 5.3984375 C 3.8382656 5.3564375 3.5995156 5.3359375 3.3535156 5.3359375 z M 11.785156 8.8417969 L 14.248047 8.8417969 L 14.248047 9.1816406 C 14.115447 9.3415406 13.970447 9.5551188 13.810547 9.8242188 C 13.654547 10.089419 13.505634 10.391163 13.365234 10.726562 C 13.224834 11.058062 13.101394 11.410756 12.996094 11.785156 C 12.894694 12.159556 12.833947 12.529884 12.810547 12.896484 L 12.40625 12.896484 C 12.42965 12.572784 12.488431 12.229888 12.582031 11.867188 C 12.679531 11.504488 12.797094 11.1518 12.933594 10.8125 C 13.073994 10.4732 13.222913 10.161653 13.382812 9.8769531 C 13.546613 9.5922532 13.705322 9.3649594 13.857422 9.1933594 L 11.785156 9.1933594 L 11.785156 8.8417969 z "
     id="path4" />
</svg>

<svg xmlns="http://www.w3.org/2000/svg" viewBox="0 0 16 16">
 <path d="m 1.6 0 c -0.886 0 -1.6 0.713 -1.6 1.6 l 0 12.801 c 0 0.886 0.713 1.6 1.6 1.6 l 12.801 0 c 0.886 0 1.6 -0.713 1.6 -1.6 l 0 -12.801 c 0 -0.886 -0.713 -1.6 -1.6 -1.6 l -12.801 0 z m 6.03 4.111 l 0 2.467 c 0.192 -0.072 0.386 -0.126 0.584 -0.162 c 0.198 -0.042 0.396 -0.063 0.594 -0.063 c 0.36 0 0.66 0.05 0.9 0.152 c 0.24 0.102 0.432 0.249 0.576 0.441 c 0.144 0.186 0.243 0.41 0.297 0.674 c 0.06 0.264 0.09 0.555 0.09 0.873 l 0 2.602 l -0.584 0 l 0 -2.412 c 0 -0.33 -0.024 -0.608 -0.072 -0.836 c -0.042 -0.228 -0.117 -0.415 -0.225 -0.559 c -0.102 -0.144 -0.24 -0.247 -0.414 -0.307 c -0.174 -0.066 -0.394 -0.098 -0.658 -0.098 c -0.102 0 -0.212 0.007 -0.332 0.025 c -0.114 0.018 -0.222 0.04 -0.324 0.064 c -0.102 0.018 -0.195 0.038 -0.279 0.063 c -0.078 0.024 -0.128 0.043 -0.152 0.055 l 0 4 l -0.586 0 l 0 -6.875 l 0.586 -0.109 z m -4.301 0.693 c 0.882 0 1.539 0.168 1.971 0.504 c 0.432 0.336 0.648 0.814 0.648 1.432 c 0 0.354 -0.063 0.656 -0.189 0.908 c -0.126 0.246 -0.305 0.448 -0.539 0.604 c -0.234 0.15 -0.523 0.262 -0.865 0.334 c -0.336 0.066 -0.717 0.098 -1.143 0.098 l -0.846 0 l 0 2.412 l -0.611 0 l 0 -6.119 c 0.216 -0.06 0.468 -0.103 0.756 -0.127 c 0.294 -0.03 0.566 -0.045 0.818 -0.045 z m 0.027 0.531 c -0.228 0 -0.424 0.009 -0.586 0.027 c -0.156 0.012 -0.29 0.023 -0.404 0.035 l 0 2.754 l 0.773 0 c 0.33 0 0.627 -0.017 0.891 -0.053 c 0.27 -0.042 0.5 -0.115 0.686 -0.217 c 0.192 -0.108 0.337 -0.255 0.439 -0.441 c 0.102 -0.186 0.154 -0.423 0.154 -0.711 c 0 -0.276 -0.058 -0.504 -0.172 -0.684 c -0.108 -0.18 -0.255 -0.322 -0.441 -0.424 c -0.18 -0.108 -0.387 -0.183 -0.621 -0.225 c -0.234 -0.042 -0.473 -0.063 -0.719 -0.063 z m 8.432 3.506 l 2.463 0 l 0 0.34 c -0.133 0.16 -0.278 0.373 -0.438 0.643 c -0.156 0.265 -0.305 0.567 -0.445 0.902 c -0.14 0.332 -0.264 0.684 -0.369 1.059 c -0.101 0.374 -0.162 0.745 -0.186 1.111 l -0.404 0 c 0.023 -0.324 0.082 -0.667 0.176 -1.029 c 0.098 -0.363 0.215 -0.715 0.352 -1.055 c 0.14 -0.339 0.289 -0.651 0.449 -0.936 c 0.164 -0.285 0.323 -0.512 0.475 -0.684 l -2.072 0 l 0 -0.352 z" style="fill:#353535;fill-opacity:1"/>
</svg>
